img/svg/social/fb-icon-white.svg

<svg width="18" height="32" viewBox="0 0 18 32" fill="none" xmlns="http://www.w3.org/2000/svg">
<path d="M11.4448 31.7448V17.4018H16.2836L17.0028 11.7861H11.4448V8.20905C11.4448 6.58855 11.8963 5.47905 14.2221 5.47905H17.1691V0.472302C15.7352 0.318636 14.2939 0.244439 12.8518 0.250052C8.57481 0.250052 5.63831 2.86105 5.63831 7.6543V11.7756H0.831055V17.3913H5.64881V31.7448H11.4448Z" fill="white"/>
</svg>

<svg xmlns="http://www.w3.org/2000/svg" fill="none" viewBox="0 0 18 32"><path fill="#fff" d="M11.445 31.745V17.402h4.839l.719-5.616h-5.558V8.21c0-1.62.451-2.73 2.777-2.73h2.947V.472A39.089 39.089 0 0 0 12.852.25c-4.277 0-7.214 2.611-7.214 7.404v4.122H.831v5.615H5.65v14.354h5.796z"/></svg>
